!!!!SEGMENT: pl-wtm--iii-40-841--002_tarnowski-adam--trzy-spiewki-z-obrazka-wiejskiego-janek-z-pod-ojcowa--no-2.krn
!!!cenid: 18xx:4352
!!!COM: Tarnowski, Adam
!!!COM-rismID: pe50042388
!!!CDT: 1816-1890/05/01
!!!CNT: Polish
!!!GTL: Trzy śpiewki z obrazka wiejskiego „Janek z pod Ojcowa”
!!!OTL: No. 2.
!!!OMV: 002
!!!PDT:
!!!AGN: Secular
!!!SMS-siglum: PL-Wtm
!!!SMS-shelfmark: III.40.841
!!!SMS-shelfwork: 001-002 G
!!!SMS-variant:
!!!SMS-altvar:
!!!NIFC-rismSourceID: 1001153056
!!!NIFC-rismChildID: 1001153058
!!!NIFC-islandoraID: pl-wtm:13529
!!!URL-pdf-islandora: https://repozytorium.nifc.pl/islandora/object/pl-wtm:13529/datastream/PDF/view
!!!URL-scan: https://polish.musicsources.pl/pl/lokalizacje/galeria/druki-muzyczne/16657/3 @EN{Scan on Polish Music Sources Website} @PL{Skany w portalu Dziedzictwo Muzyki Polskiej w otwartym dostępie}
!!!ONB-nifc:
!!!OMD: Piu lento
!!!AIN: 1 piano 1 vox
!!!key:
**kern	**kern	**dynam	**kern	**text	**text	**text	**text
*part2	*part2	*part2	*part1	*part1	*part1	*part1	*part1
*staff3	*staff2	*	*staff1	*staff1	*staff1	*staff1	*staff1
*	*I"PIANO	*	*I"SPIEW	*	*	*	*
*	*I'pf	*	*I'V	*	*	*	*
*	*Ipiano	*	*Ivox	*	*	*	*
*	*ICklav	*	*ICvox	*	*	*	*
*	*IGacmp	*	*IGsolo	*	*	*	*
*clefF4	*clefG2	*	*clefG2	*	*	*	*
*k[b-e-]	*k[b-e-]	*	*k[b-e-]	*	*	*	*
*g:	*g:	*	*g:	*	*	*	*
*M3/4	*M3/4	*	*M3/4	*	*	*	*
*>[A,B,B1,B2,B3]	*>[A,B,B1,B2,B3]	*	*>[A,B,B1,B2,B3]	*	*	*	*
=1	=1	=1	=1	=1	=1	=1	=1
*>A	*>A	*	*>A	*	*	*	*
8GG/	8g\L	.	2.r	.	.	.	.
8r	8b-\J	.	.	.	.	.	.
2GG/ 2D 2G	4..dd\	.	.	.	.	.	.
.	16b-\	.	.	.	.	.	.
=2	=2	=2	=2	=2	=2	=2	=2
4GG/	8.cc\L	.	2.r	.	.	.	.
.	(16qqdd/LL	.	.	.	.	.	.
.	16qqcc/	.	.	.	.	.	.
.	16qqb-/JJ)	.	.	.	.	.	.
.	16cc\Jk	.	.	.	.	.	.
4BB-\ 4D 4G	(4dd\	.	.	.	.	.	.
4BB-\ 4D 4G	4g\)	.	.	.	.	.	.
=3	=3	=3	=3	=3	=3	=3	=3
.	(8qd/	>	.	.	.	.	.
*	*^	*	*	*	*	*	*
4DD/	8.b-/L)	4ryy	.	2.r	.	.	.	.
.	16b-/Jk	.	.	.	.	.	.	.
!	!LO:N:vis=16..	!	!	!	!	!	!	!
2DD/ 2D	4..a/	2c\	.	.	.	.	.	.
.	16f#X/	.	.	.	.	.	.	.
!!LO:LB:g=original
=4	=4	=4	=4	=4	=4	=4	=4	=4
4GG\ 4G	2g/	2B-\	]	2.r	.	.	.	.
4GG/	.	.	.	.	.	.	.	.
4r	4r	4ryy	.	.	.	.	.	.
*	*v	*v	*	*	*	*	*	*
=5||	=5||	=5||	=5||	=5||	=5||	=5||	=5||
*>B	*>B	*	*>B	*	*	*	*
!LO:TX:t=[segno]	!LO:TX:t=[segno]	!	!LO:TX:t=[segno]	!	!	!	!
8GG\ 8G	4r	p	8g\	1. O	2. Da-	3. Gdy-	4. Gdy-
8r	.	.	8b-\	mój	-wniej	-bym	-bym
2GG\ 2G	2G</ 2d 2g 2b-	.	4..dd\	Bo-	we-	gwiazd-	pta-
.	.	.	16b-\	-że	-so-	-ką	-szę
=6	=6	=6	=6	=6	=6	=6	=6
4GG/	4r	.	8cc\	Cóż	-łom	w gó-	skrzy-
.	.	.	8cc\	ta-	spie-	-rze	-dła
4G\	4d/ 4g 4b-	.	4dd\	-kie-	-wa-	by-	mia-
4G\	4B-/ 4d 4g	.	4g/	-go	-ła	-ła	-ła
=7	=7	=7	=7	=7	=7	=7	=7
2.D\	4r	.	8b-\	Co	Jak-	J	Fru-
.	.	.	8b-\	po-	-by	swie-	-wa-
.	4A</ 4c 4d 4f#X	.	4.a/	-chmur-	w po-	-ći-	-ła
.	4A</ 4c 4d 4f#	.	.	.	.	.	.
.	.	.	8f#X/	-ny	-lu	-ła	jak
!!LO:LB:g=original
=8	=8	=8	=8	=8	=8	=8	=8
4GG\	4r	.	4g/	dzień.	Ptak.	w noc.	Ptak.
4G\	4G</ 4B- 4d 4g	.	4ryy	.	.	.	.
4G\	4G</ 4B- 4d 4g	.	4r	.	.	.	.
=9	=9	=9	=9	=9	=9	=9	=9
4GG\	4r	.	8g/	Że	Fra-	To-	To-
.	.	.	8b-/	nie	-sun-	-bym	-bym
2ryy	2G</ 2d 2g 2b-	.	4.dd\	wi-	-ku	na	do
.	.	.	8b-/	-dać	ni-	Jon-	Jon-
=10	=10	=10	=10	=10	=10	=10	=10
4GG\	4r	.	8ee-\	Jon-	-gdym	-ka	-ka
.	.	.	8dd\	-ka	.	pa-	le-
4G\	4d/ 4g 4b-	.	(4cc\	me-	nie	-trzy-	-ćia-
4G\	4B-/ 4g	.	(8dd\L)	-go	zna-	-ła	-ła.
.	.	.	8g\J)	.	-ła	.	.
=11	=11	=11	=11	=11	=11	=11	=11
2.D\	4r	.	8b-/	nie	Dziś	Choć-	J
.	.	.	(8qcc/	.	.	.	.
.	.	.	8b-/)	je-	wszyst-	-by	śpie-
.	4A</ 4c 4d 4f#X	.	4..a/	-den	-ko	bez	-wa-
.	4A</ 4c 4d 4f#	.	.	.	.	.	.
.	.	.	16f#X/	ty-	i	pół	-ła
!!LO:PB:g=original
=12	=12	=12	=12	=12	=12	=12	=12
(4GG\	2G</ 2B- 2d 2g	.	2g/	-dzień.	nak.	noc.	tak.
4D\	.	.	.	.	.	.	.
4G\)	4r	.	4r	.	.	.	.
=13	=13	=13	=13	=13	=13	=13	=13
*	*tremolo	*	*	*	*ij	*	*
2.D\	(8c/L 8f#X	.	8b-\	Ocz-	Ocz-	Bom	Wróć
.	.	.	(16qqb-/LL	.	.	.	.
.	.	.	16qqcc/JJ)	.	.	.	.
.	8d/	.	8b-\	-kim	-kim	se	mój
.	8c/ 8f#	.	4..a/	so-	so-	Ocz-	Jan-
.	8d/	.	.	.	.	.	.
.	8c/ 8f#	.	.	.	.	.	.
.	8d/J)	.	.	.	.	.	.
.	.	.	16f#X/	-bie	-bie	-ki	-ku
*	*Xtremolo	*	*	*	*	*	*
=14	=14	=14	=14	=14	=14	=14	=14
*	*tremolo	*	*	*	*	*	*
!	!	!	!LO:N:vis=16	!	!	!	!
2.G\	(8B-/L 8e- 8g	.	8g/	za-	za-	wy-	bom
!	!	!	!LO:N:vis=16	!	!	!	!
.	8d/	.	8b-/	-pła-	-pła-	-pła-	pła-
.	8B-/ 8e- 8g	.	4.dd/	-ka-	-ka-	-ka-	-ka-
.	8d/	.	.	.	.	.	.
.	8B-/ 8e- 8g	.	.	.	.	.	.
!	!	!	!LO:N:vis=16	!	!	!	!
.	8d/J)	.	8b-/	-ła	-ła	-ła	-ła
*	*Xtremolo	*	*	*	*Xij	*	*
!!LO:LB:g=original
=15	=15	=15	=15	=15	=15	=15	=15
*	*tremolo	*	*	*	*ij	*ij	*ij
2.D\	(8c/L 8f#X	.	8b-\	Głów-	Głów-	Głów-	Głów-
.	8d/	.	8b-\	-kem	-kem	-kem	-kem
.	8c/ 8f#	.	4..a/	so-	so-	so-	so-
.	8d/	.	.	.	.	.	.
.	8c/ 8f#	.	.	.	.	.	.
.	8d/J)	.	.	.	.	.	.
.	.	.	16f#X/	-bie	-bie	-bie	-bie
*	*Xtremolo	*	*	*	*	*	*
=16	=16	=16	=16	=16	=16	=16	=16
*	*tremolo	*	*	*	*	*	*
!	!	!	!LO:N:vis=16	!	!	!	!
2G\	(8B-/L 8g	.	8g/	skło-	skło-	skło-	skło-
.	8d/	.	8b-/	-po-	-po-	-po-	-po-
.	8B-/ 8g	.	4dd/	-ta-	-ta-	-ta-	-ta-
.	8d/J)	.	.	.	.	.	.
*	*Xtremolo	*	*	*	*	*	*
4D\	8c/L 8f#X	.	(8cc/L	-ła	-ła	-ła	-ła
.	8d/J	.	8a/J)	.	.	.	.
=17	=17	=17	=17	=17	=17	=17	=17
4G\	8B-/L 8g	.	8b-\	wszyc-	wszyc-	wszyc-	wszyc-
.	8d/J	.	8b-\	-ko	-ko	ko	-ko
*	*tremolo	*	*	*	*	*	*
4r	8c/L 8f#X	.	4a\	dla	dla	dla	dla
*	*	*	*	*	*	*	*Xij
.	8d/	.	.	.	.	.	.
4D\	8c/ 8f#	.	4dd\	nie-	nie-	nie-	cie-
.	8d/J	.	.	.	.	.	.
*	*Xtremolo	*	*	*	*	*	*
!!LO:LB:g=original
=18	=18	=18	=18	=18	=18	=18	=18
2.GG\	2B-/ 2g	.	2g/	-go	-go	-go	-bie
*	*	*	*	*	*Xij	*Xij	*
.	8.r	.	4r	.	.	.	.
.	(16dd\	.	.	.	.	.	.
=19	=19	=19	=19	=19	=19	=19	=19
*	*^	*	*	*	*	*	*
2e-\	8.b-\L) 8.dd 8.bb-	4ryy	.	2.ryy	.	.	.	.
.	16b-\Jk 16dd 16bb-	.	.	.	.	.	.	.
.	4..aa/	4..a\ 4..cc 4..aa	.	.	.	.	.	.
4D\	.	.	.	.	.	.	.	.
.	16dd/	16a\ 16cc	.	.	.	.	.	.
=20	=20	=20	=20	=20	=20	=20	=20	=20
4G\	2gg/	2g\ 2b- 2gg	.	2.ryy	.	.	.	.
4GG/	.	.	.	.	.	.	.	.
!LO:TX:t=[segno]	!LO:TX:t=[segno]	!	!	!LO:TX:t=[segno]	!	!	!	!
4r;	4r;	4ryy	.	.	.	.	.	.
*	*v	*v	*	*	*	*	*	*
==	==	==	==	==	==	==	==
*-	*-	*-	*-	*-	*-	*-	*-
!!!system-decoration: s1{(s2,s3)}
!!!RDF**kern: < = below
!!!RDF**kern: > = above
!!!ENC: Filip Voros
!!!END: 2023-07-10
!!!ENC: Marta Chmielewska
!!!END: 2023-07-13
!!!YEC: Copyright 2022 Narodowy Instytut Fryderyka Chopina (https://polishscores.org)
!!!YEM: License CC-BY-4.0 (https://creativecommons.org/licenses/by/4.0)
